src/assets/icons/fa/square-o.svg

<?xml version="1.0" encoding="utf-8"?>
<svg width="1792" height="1792" viewBox="0 0 1792 1792" xmlns="http://www.w3.org/2000/svg"><path d="M1312 256h-832q-66 0-113 47t-47 113v832q0 66 47 113t113 47h832q66 0 113-47t47-113v-832q0-66-47-113t-113-47zm288 160v832q0 119-84.5 203.5t-203.5 84.5h-832q-119 0-203.5-84.5t-84.5-203.5v-832q0-119 84.5-203.5t203.5-84.5h832q119 0 203.5 84.5t84.5 203.5z"/></svg>

<svg width="1792" height="1792" xmlns="http://www.w3.org/2000/svg"><path d="M1312 256H480q-66 0-113 47t-47 113v832q0 66 47 113t113 47h832q66 0 113-47t47-113V416q0-66-47-113t-113-47zm288 160v832q0 119-84.5 203.5T1312 1536H480q-119 0-203.5-84.5T192 1248V416q0-119 84.5-203.5T480 128h832q119 0 203.5 84.5T1600 416z"/></svg>
